X: 1
T: Martha Campbell
O: "Irish" version
S:http://www.ibiblio.org/fiddlers/MART_MATI.htm#MARTHA_CAMPBELL_%5B1
S:Kentucky Old Timey. Buddy Thomas arr by Dave Macadam
R:reel
Q:180
M:C|
L:1/8
K:D
E |\
DEFA BFAF | DEFA BF A2 | DEFA BAFB | ABAG E3 F |
DEFA BFAF | DEFA BF A2 | ABde fgfe | dBAF D3 :|
|: F |\
ABde fddf | efde fddB | ABde faag | fefd B3 A |
ABde fddf | efde fddf | abag fgfe |dBAF D3 :|
